build/img/icon/mess-insta.svg

<?xml version="1.0" encoding="UTF-8"?> <svg xmlns="http://www.w3.org/2000/svg" width="198" height="198" viewBox="0 0 198 198" fill="none"> <path d="M99 196.62C152.914 196.62 196.62 152.914 196.62 99C196.62 45.086 152.914 1.38 99 1.38C45.086 1.38 1.38 45.086 1.38 99C1.38 152.914 45.086 196.62 99 196.62Z" fill="url(#paint0_linear)"></path> <path fill-rule="evenodd" clip-rule="evenodd" d="M116.21 60.59H81.79C70.1 60.59 60.59 70.1 60.59 81.79V116.21C60.59 127.9 70.1 137.41 81.79 137.41H116.21C127.9 137.41 137.41 127.9 137.41 116.21V81.79C137.41 70.1 127.9 60.59 116.21 60.59ZM130.59 116.21C130.59 124.14 124.14 130.59 116.21 130.59H81.79C73.86 130.59 67.41 124.14 67.41 116.21V81.79C67.41 73.86 73.86 67.41 81.79 67.41H116.21C124.14 67.41 130.59 73.86 130.59 81.79V116.21Z" fill="#FEFEFE"></path> <path fill-rule="evenodd" clip-rule="evenodd" d="M99 79.2101C88.09 79.2101 79.21 88.0901 79.21 99.0001C79.21 109.91 88.09 118.79 99 118.79C109.91 118.79 118.79 109.91 118.79 99.0001C118.79 88.0901 109.91 79.2101 99 79.2101ZM99 111.98C91.84 111.98 86.02 106.16 86.02 99.0001C86.02 91.8401 91.84 86.0201 99 86.0201C106.16 86.0201 111.98 91.8401 111.98 99.0001C111.98 106.16 106.16 111.98 99 111.98ZM119.62 73.4301C118.31 73.4301 117.02 73.9601 116.09 74.8901C115.16 75.8201 114.63 77.1101 114.63 78.4301C114.63 79.7401 115.16 81.0301 116.09 81.9601C117.029 82.892 118.297 83.4165 119.62 83.4201C120.94 83.4201 122.23 82.8901 123.16 81.9601C124.092 81.0212 124.616 79.7529 124.62 78.4301C124.62 77.1101 124.09 75.8201 123.16 74.8901C122.218 73.9562 120.946 73.4316 119.62 73.4301Z" fill="#FEFEFE"></path> <defs> <linearGradient id="paint0_linear" x1="1.38" y1="99" x2="196.62" y2="99" gradientUnits="userSpaceOnUse"> <stop stop-color="#8161D0"></stop> <stop offset="1" stop-color="#C65492"></stop> </linearGradient> </defs> </svg>

<svg xmlns="http://www.w3.org/2000/svg" width="198" height="198" fill="none"><path d="M99 196.62c53.914 0 97.62-43.706 97.62-97.62S152.914 1.38 99 1.38 1.38 45.086 1.38 99 45.086 196.62 99 196.62z" fill="url(#paint0_linear)"/><path fill-rule="evenodd" clip-rule="evenodd" d="M116.21 60.59H81.79c-11.69 0-21.2 9.51-21.2 21.2v34.42c0 11.69 9.51 21.2 21.2 21.2h34.42c11.69 0 21.2-9.51 21.2-21.2V81.79c0-11.69-9.51-21.2-21.2-21.2zm14.38 55.62c0 7.93-6.45 14.38-14.38 14.38H81.79c-7.93 0-14.38-6.45-14.38-14.38V81.79c0-7.93 6.45-14.38 14.38-14.38h34.42c7.93 0 14.38 6.45 14.38 14.38v34.42z" fill="#FEFEFE"/><path fill-rule="evenodd" clip-rule="evenodd" d="M99 79.21c-10.91 0-19.79 8.88-19.79 19.79 0 10.91 8.88 19.79 19.79 19.79 10.91 0 19.79-8.88 19.79-19.79 0-10.91-8.88-19.79-19.79-19.79zm0 32.77c-7.16 0-12.98-5.82-12.98-12.98S91.84 86.02 99 86.02s12.98 5.82 12.98 12.98-5.82 12.98-12.98 12.98zm20.62-38.55c-1.31 0-2.6.53-3.53 1.46-.93.93-1.46 2.22-1.46 3.54 0 1.31.53 2.6 1.46 3.53a5.03 5.03 0 003.53 1.46c1.32 0 2.61-.53 3.54-1.46a5.032 5.032 0 001.46-3.53c0-1.32-.53-2.61-1.46-3.54a5.036 5.036 0 00-3.54-1.46z" fill="#FEFEFE"/><defs><linearGradient id="paint0_linear" x1="1.38" y1="99" x2="196.62" y2="99" gradientUnits="userSpaceOnUse"><stop stop-color="#8161D0"/><stop offset="1" stop-color="#C65492"/></linearGradient></defs></svg>
